X:320
T: Jiefangjun daochu shou huanyeng
N: C1818
O: China,Gansu Jingchuan
S: I, 123]
N: Han
R: Xiaodiao, Yangyanmai]
M: 2/4
L: 1/16
K: F
F2EFD2C2 | F2EFD2C2 | d2c4c2 | d2c2B2G2 |
d2c4c2 | d2c2B2G2 | F2F4G2 | F8 |
F2G2c2c2 | d2c2B2G2 | B2G2B2GB | E6F2 |
B2G4c2 | F2G2F2ED | C2C4F2 | C8

@@@ Tune index: 6875
